docs/img/svg/edit.svg

<svg xmlns="http://www.w3.org/2000/svg" preserveAspectRatio="xMidYMid" width="17" height="17" viewBox="0 0 17 17"><defs><style>.cls-1{fill:#818181;fill-rule:evenodd}</style></defs><path d="M15.795 10.996h-.702a.24.24 0 0 0-.171.411l.497.495a1.162 1.162 0 0 1 0 1.639l-1.88 1.877a1.156 1.156 0 0 1-.82.337c-.298 0-.595-.112-.821-.337l-.496-.496a.244.244 0 0 0-.263-.053.243.243 0 0 0-.149.223v.701c0 .637-.522 1.207-1.16 1.207H7.171c-.638 0-1.16-.57-1.16-1.207v-.701a.243.243 0 0 0-.241-.241.244.244 0 0 0-.171.071l-.496.496a1.159 1.159 0 0 1-.821.337c-.297 0-.595-.112-.82-.337l-1.88-1.877a1.162 1.162 0 0 1 0-1.639l.497-.495a.24.24 0 1 0-.171-.411h-.702c-.639 0-1.209-.522-1.209-1.159V7.183c0-.637.57-1.158 1.209-1.158h.702a.24.24 0 0 0 .171-.411l-.497-.496a1.162 1.162 0 0 1 0-1.639l1.88-1.876c.225-.226.523-.338.82-.338.298 0 .595.112.821.338l.496.496a.243.243 0 0 0 .263.052.24.24 0 0 0 .149-.223v-.701c0-.637.522-1.231 1.16-1.231H9.83c.638 0 1.16.594 1.16 1.231v.701a.24.24 0 0 0 .412.171l.496-.496c.226-.226.523-.338.821-.338.297 0 .595.112.82.338l1.88 1.876a1.162 1.162 0 0 1 0 1.639l-.497.496a.24.24 0 0 0 .171.411h.702c.639 0 1.209.521 1.209 1.158v2.654c0 .637-.57 1.159-1.209 1.159zm.049-3.813h-.751a1.398 1.398 0 0 1-.991-2.389l.496-.495-1.879-1.877-.497.496a1.394 1.394 0 0 1-1.527.303 1.394 1.394 0 0 1-.865-1.293v-.773H7.171v.773c0 .568-.339 1.076-.865 1.293a1.392 1.392 0 0 1-1.527-.303l-.497-.496-1.879 1.877.496.495a1.398 1.398 0 1 1-.991 2.389h-.751v2.654h.751a1.398 1.398 0 0 1 .991 2.389l-.496.496 1.879 1.876.497-.496c.264-.264.616-.409.991-.409a1.394 1.394 0 0 1 1.401 1.399v.749H9.83v-.749a1.394 1.394 0 0 1 1.401-1.399c.375 0 .726.145.991.409l.497.496 1.879-1.876-.496-.496a1.398 1.398 0 1 1 .991-2.389h.751V7.183zM8.5 12.024A3.52 3.52 0 0 1 4.98 8.51a3.52 3.52 0 0 1 7.041 0A3.522 3.522 0 0 1 8.5 12.024zm0-5.87A2.36 2.36 0 0 0 6.141 8.51a2.36 2.36 0 0 0 4.719 0A2.36 2.36 0 0 0 8.5 6.154z" class="cls-1"/></svg>

<svg xmlns="http://www.w3.org/2000/svg" xmlns:xlink="http://www.w3.org/1999/xlink" preserveAspectRatio="xMidYMid" width="17" height="17" viewBox="0 0 17 17">
  <defs>
    <style>
      .cls-1 {
        fill: #818181;
        fill-rule: evenodd;
      }
    </style>
  </defs>
  <path d="M15.795,10.996 L15.093,10.996 C14.995,10.996 14.907,11.054 14.870,11.144 C14.833,11.234 14.853,11.338 14.922,11.407 L15.419,11.902 C15.870,12.353 15.870,13.090 15.419,13.541 L13.539,15.418 C13.314,15.643 13.016,15.755 12.719,15.755 C12.421,15.755 12.124,15.643 11.898,15.418 L11.402,14.922 C11.355,14.876 11.294,14.851 11.231,14.851 C11.200,14.851 11.169,14.857 11.139,14.869 C11.049,14.907 10.990,14.995 10.990,15.092 L10.990,15.793 C10.990,16.430 10.468,17.000 9.830,17.000 L7.171,17.000 C6.533,17.000 6.011,16.430 6.011,15.793 L6.011,15.092 C6.011,14.995 5.952,14.907 5.862,14.869 C5.832,14.857 5.801,14.851 5.770,14.851 C5.707,14.851 5.646,14.876 5.599,14.922 L5.103,15.418 C4.877,15.643 4.580,15.755 4.282,15.755 C3.985,15.755 3.687,15.643 3.462,15.418 L1.582,13.541 C1.131,13.090 1.131,12.353 1.582,11.902 L2.079,11.407 C2.148,11.338 2.168,11.234 2.131,11.144 C2.094,11.054 2.006,10.996 1.908,10.996 L1.206,10.996 C0.567,10.996 -0.003,10.474 -0.003,9.837 L-0.003,7.183 C-0.003,6.546 0.567,6.025 1.206,6.025 L1.908,6.025 C2.006,6.025 2.094,5.966 2.131,5.876 C2.168,5.786 2.148,5.683 2.079,5.614 L1.582,5.118 C1.131,4.667 1.131,3.930 1.582,3.479 L3.462,1.603 C3.687,1.377 3.985,1.265 4.282,1.265 C4.580,1.265 4.877,1.377 5.103,1.603 L5.599,2.099 C5.646,2.145 5.707,2.169 5.770,2.169 C5.801,2.169 5.832,2.163 5.862,2.151 C5.952,2.114 6.011,2.026 6.011,1.928 L6.011,1.227 C6.011,0.590 6.533,-0.004 7.171,-0.004 L9.830,-0.004 C10.468,-0.004 10.990,0.590 10.990,1.227 L10.990,1.928 C10.990,2.026 11.049,2.114 11.139,2.151 C11.169,2.163 11.200,2.169 11.231,2.169 C11.294,2.169 11.355,2.145 11.402,2.099 L11.898,1.603 C12.124,1.377 12.421,1.265 12.719,1.265 C13.016,1.265 13.314,1.377 13.539,1.603 L15.419,3.479 C15.870,3.930 15.870,4.667 15.419,5.118 L14.922,5.614 C14.853,5.683 14.833,5.786 14.870,5.876 C14.907,5.966 14.995,6.025 15.093,6.025 L15.795,6.025 C16.434,6.025 17.004,6.546 17.004,7.183 L17.004,9.837 C17.004,10.474 16.434,10.996 15.795,10.996 ZM15.844,7.183 L15.093,7.183 C14.524,7.183 14.016,6.844 13.798,6.319 C13.580,5.795 13.700,5.196 14.102,4.794 L14.598,4.299 L12.719,2.422 L12.222,2.918 C11.957,3.182 11.606,3.328 11.231,3.328 C11.046,3.328 10.866,3.292 10.695,3.221 C10.169,3.004 9.830,2.496 9.830,1.928 L9.830,1.155 L7.171,1.155 L7.171,1.928 C7.171,2.496 6.832,3.004 6.306,3.221 C6.135,3.292 5.955,3.328 5.770,3.328 C5.395,3.328 5.043,3.182 4.779,2.918 L4.282,2.422 L2.403,4.299 L2.899,4.794 C3.301,5.196 3.421,5.795 3.203,6.319 C2.985,6.844 2.477,7.183 1.908,7.183 L1.157,7.183 L1.157,9.837 L1.908,9.837 C2.477,9.837 2.985,10.176 3.203,10.701 C3.421,11.226 3.301,11.824 2.899,12.226 L2.403,12.722 L4.282,14.598 L4.779,14.102 C5.043,13.838 5.395,13.693 5.770,13.693 C5.955,13.693 6.135,13.728 6.306,13.799 C6.832,14.016 7.171,14.524 7.171,15.092 L7.171,15.841 L9.830,15.841 L9.830,15.092 C9.830,14.524 10.169,14.016 10.695,13.799 C10.866,13.728 11.046,13.693 11.231,13.693 C11.606,13.693 11.957,13.838 12.222,14.102 L12.719,14.598 L14.598,12.722 L14.102,12.226 C13.700,11.824 13.580,11.226 13.798,10.701 C14.016,10.176 14.524,9.837 15.093,9.837 L15.844,9.837 L15.844,7.183 ZM8.500,12.024 C6.559,12.024 4.980,10.448 4.980,8.510 C4.980,6.572 6.559,4.996 8.500,4.996 C10.441,4.996 12.021,6.572 12.021,8.510 C12.021,10.448 10.441,12.024 8.500,12.024 ZM8.500,6.154 C7.199,6.154 6.141,7.211 6.141,8.510 C6.141,9.809 7.199,10.866 8.500,10.866 C9.802,10.866 10.860,9.809 10.860,8.510 C10.860,7.211 9.802,6.154 8.500,6.154 Z" class="cls-1"/>
</svg>
